flaticon/household/garage.svg

<svg xmlns="http://www.w3.org/2000/svg" width="32" height="32" viewBox="0 0 24 24">
    <path d="M 23.839844 9.234375 L 22.25 8.039062 L 13.765625 1.59375 C 12.726562 0.804688 11.273438 0.804688 10.234375 1.59375 L 1.75 8.039062 L 0.160156 9.234375 C -0.015625 9.367188 -0.0507812 9.617188 0.078125 9.792969 C 0.160156 9.898438 0.277344 9.953125 0.402344 9.953125 C 0.484375 9.953125 0.566406 9.929688 0.640625 9.875 L 1.601562 9.152344 L 1.601562 10.4375 C 1.511719 10.488281 1.433594 10.542969 1.363281 10.613281 L 1.15625 10.796875 C 0.785156 10.992188 0.507812 11.378906 0.429688 11.816406 C 0.382812 12.054688 0.398438 12.308594 0.46875 12.546875 C 0.507812 12.679688 0.476562 12.839844 0.386719 12.972656 C -0.03125 13.59375 -0.117188 14.457031 0.175781 15.121094 C 0.21875 15.222656 0.273438 15.316406 0.339844 15.40625 C 0.429688 15.53125 0.464844 15.695312 0.425781 15.847656 C 0.40625 15.929688 0.390625 16.015625 0.382812 16.097656 C 0.351562 16.453125 0.425781 16.804688 0.484375 17.082031 C 0.546875 17.375 0.640625 17.820312 0.96875 18.105469 C 1.144531 18.257812 1.363281 18.335938 1.601562 18.347656 L 1.601562 19.554688 L 0.539062 19.554688 C 0.386719 19.554688 0.246094 19.621094 0.144531 19.734375 C 0.046875 19.847656 0.00390625 20 0.0273438 20.152344 L 0.457031 23 L 21.261719 23 C 21.890625 23 22.398438 22.488281 22.398438 21.859375 L 22.398438 9.15625 L 23.359375 9.875 C 23.433594 9.929688 23.515625 9.953125 23.597656 9.953125 C 23.722656 9.953125 23.839844 9.898438 23.921875 9.792969 C 24.050781 9.617188 24.015625 9.367188 23.839844 9.234375 Z M 1.265625 16.917969 C 1.214844 16.667969 1.160156 16.40625 1.179688 16.167969 C 1.183594 16.125 1.191406 16.082031 1.203125 16.039062 C 1.296875 15.660156 1.214844 15.242188 0.980469 14.929688 C 0.953125 14.890625 0.925781 14.84375 0.90625 14.800781 C 0.722656 14.382812 0.78125 13.816406 1.046875 13.421875 C 1.273438 13.085938 1.34375 12.683594 1.234375 12.320312 C 1.203125 12.203125 1.195312 12.078125 1.214844 11.960938 C 1.253906 11.753906 1.386719 11.570312 1.550781 11.492188 L 1.914062 11.195312 C 1.964844 11.140625 2.035156 11.113281 2.109375 11.101562 C 2.140625 11.09375 2.175781 11.089844 2.210938 11.089844 C 2.214844 11.089844 2.222656 11.089844 2.230469 11.085938 C 2.273438 11.085938 2.320312 11.089844 2.371094 11.097656 C 2.667969 11.136719 2.914062 11.296875 3.03125 11.519531 C 3.089844 11.636719 3.109375 11.796875 3.082031 11.941406 C 3.066406 12.007812 3.0625 12.074219 3.0625 12.140625 C 3.046875 12.4375 3.136719 12.734375 3.328125 12.960938 C 3.375 13.019531 3.410156 13.097656 3.425781 13.171875 C 3.445312 13.273438 3.445312 13.382812 3.425781 13.507812 C 3.40625 13.632812 3.363281 13.769531 3.304688 13.925781 C 3.226562 14.121094 3.136719 14.285156 3.042969 14.417969 C 2.78125 14.777344 2.742188 15.289062 2.9375 15.746094 C 3.03125 15.960938 3.046875 16.238281 2.980469 16.46875 C 2.820312 16.988281 2.359375 17.292969 2.097656 17.425781 C 2.035156 17.457031 1.96875 17.484375 1.902344 17.507812 C 1.742188 17.558594 1.582031 17.574219 1.492188 17.5 C 1.367188 17.390625 1.304688 17.105469 1.265625 16.917969 Z M 2.855469 22.199219 L 1.144531 22.199219 L 0.863281 20.355469 L 3.136719 20.355469 Z M 5.601562 22.199219 L 5.601562 21 L 18.800781 21 L 18.800781 22.199219 Z M 18.800781 17 L 18.800781 18.199219 L 5.601562 18.199219 L 5.601562 17 Z M 5.601562 16.199219 L 5.601562 15 L 18.800781 15 L 18.800781 16.199219 Z M 18.800781 14.199219 L 5.601562 14.199219 L 5.601562 13 L 18.800781 13 Z M 5.601562 19 L 18.800781 19 L 18.800781 20.199219 L 5.601562 20.199219 Z M 18.800781 12.199219 L 5.601562 12.199219 L 5.601562 11 L 18.800781 11 Z M 21.261719 22.199219 L 19.601562 22.199219 L 19.601562 10.199219 L 4.800781 10.199219 L 4.800781 22.199219 L 3.664062 22.199219 L 3.976562 20.148438 C 3.996094 20 3.953125 19.847656 3.855469 19.734375 C 3.757812 19.621094 3.613281 19.554688 3.460938 19.554688 L 2.398438 19.554688 L 2.398438 18.171875 C 2.421875 18.160156 2.445312 18.148438 2.464844 18.136719 C 3.109375 17.804688 3.566406 17.292969 3.746094 16.699219 C 3.867188 16.292969 3.839844 15.816406 3.671875 15.425781 C 3.609375 15.28125 3.597656 15.128906 3.632812 15.007812 C 3.644531 14.960938 3.664062 14.921875 3.6875 14.886719 C 3.824219 14.699219 3.945312 14.476562 4.046875 14.21875 C 4.199219 13.835938 4.253906 13.496094 4.230469 13.1875 C 4.222656 13.128906 4.222656 13.070312 4.210938 13.015625 C 4.167969 12.808594 4.078125 12.613281 3.945312 12.453125 C 3.871094 12.363281 3.835938 12.222656 3.863281 12.105469 C 3.933594 11.78125 3.886719 11.433594 3.742188 11.148438 C 3.507812 10.699219 3.035156 10.382812 2.480469 10.304688 C 2.460938 10.300781 2.4375 10.296875 2.414062 10.296875 L 11.269531 3.566406 C 11.699219 3.242188 12.300781 3.238281 12.730469 3.566406 L 21.601562 10.308594 L 21.601562 21.859375 C 21.601562 22.046875 21.449219 22.199219 21.261719 22.199219 Z M 21.601562 9.304688 L 13.214844 2.929688 C 12.5 2.386719 11.5 2.386719 10.785156 2.929688 L 2.398438 9.304688 L 2.398438 8.554688 L 3.839844 7.472656 C 3.859375 7.460938 3.867188 7.441406 3.882812 7.425781 L 10.71875 2.230469 C 11.472656 1.65625 12.527344 1.65625 13.28125 2.230469 L 18.472656 6.175781 C 18.496094 6.210938 18.523438 6.246094 18.558594 6.273438 L 21.601562 8.554688 Z M 21.601562 9.304688"/>
</svg>

<svg xmlns="http://www.w3.org/2000/svg" width="32" height="32" viewBox="0 0 24 24">
    <path d="M23.84 9.234L22.25 8.04l-8.484-6.445a2.93 2.93 0 0 0-3.532 0L1.75 8.039.16 9.234a.403.403 0 0 0-.082.559.405.405 0 0 0 .563.082l.96-.723v1.286c-.09.05-.167.105-.238.175l-.207.184a1.449 1.449 0 0 0-.726 1.02c-.047.238-.032.492.039.73a.518.518 0 0 1-.082.426c-.418.62-.504 1.484-.211 2.148.043.102.097.195.164.285.09.125.125.29.086.442a1.86 1.86 0 0 0-.043.25c-.031.355.043.707.101.984.063.293.157.738.485 1.023.176.153.394.23.633.243v1.207H.539a.518.518 0 0 0-.512.598L.457 23h20.805c.629 0 1.136-.512 1.136-1.14V9.155l.961.719a.405.405 0 0 0 .563-.082.403.403 0 0 0-.082-.559zM1.266 16.918c-.051-.25-.106-.512-.086-.75a.746.746 0 0 1 .023-.129 1.338 1.338 0 0 0-.223-1.11.847.847 0 0 1-.074-.128c-.183-.418-.125-.985.14-1.38.227-.335.298-.737.188-1.1a.861.861 0 0 1-.02-.36.66.66 0 0 1 .337-.469l.363-.297a.33.33 0 0 1 .195-.093.426.426 0 0 1 .102-.012c.004 0 .012 0 .02-.004a.93.93 0 0 1 .14.012c.297.039.543.199.66.422a.695.695 0 0 1 .051.421.862.862 0 0 0-.02.2c-.015.296.075.593.266.82a.522.522 0 0 1 .098.21c.02.102.02.212 0 .337a2.4 2.4 0 0 1-.383.91c-.262.36-.3.871-.106 1.328.094.215.11.492.043.723-.16.52-.62.824-.882.957a1.718 1.718 0 0 1-.196.082c-.16.05-.32.066-.41-.008-.125-.11-.187-.395-.226-.582zm1.59 5.281H1.144l-.282-1.844h2.274zm2.746 0V21H18.8v1.2zM18.8 17v1.2H5.6V17zm-13.2-.8V15h13.2v1.2zm13.2-2H5.6V13h13.2zM5.6 19h13.2v1.2H5.6zm13.2-6.8H5.6V11h13.2zm2.46 10h-1.66v-12h-14.8v12H3.664l.313-2.052a.522.522 0 0 0-.516-.594H2.398v-1.382l.067-.035c.644-.332 1.101-.844 1.281-1.438a1.928 1.928 0 0 0-.074-1.273.634.634 0 0 1-.04-.418.382.382 0 0 1 .055-.121 2.99 2.99 0 0 0 .36-.668c.152-.383.207-.723.183-1.031-.007-.06-.007-.118-.02-.172a1.293 1.293 0 0 0-.265-.563.424.424 0 0 1-.082-.348c.07-.324.024-.671-.12-.957-.235-.449-.708-.765-1.263-.843a.344.344 0 0 0-.066-.008l8.856-6.73a1.213 1.213 0 0 1 1.46 0l8.872 6.742v11.55a.34.34 0 0 1-.34.34zm.34-12.895L13.216 2.93a2.016 2.016 0 0 0-2.43 0L2.398 9.305v-.75L3.84 7.473c.02-.012.027-.032.043-.047l6.836-5.196a2.121 2.121 0 0 1 2.562 0l5.192 3.946c.023.035.05.07.086.097l3.043 2.282zm0 0"/>
</svg>
